X:170
T: RAEDCHEN RAEDCHEN GEHE GEHE
N: B0659
O: Europa, Mitteleuropa, Deutschland
R: Moral - Lied
M: 3/8
L: 1/8
K: D
 | A2F | D2D | EDE | F2D
D2F | A2d | cBc | d2A
dcd | cde | dcB | A3
A2A | B2A | A^GA | e2c
A^GA | d2d | ede | f2d
dcd | A^GA | FEF | B2z
dcB | ABA | GFE | D2z

